X:1213
T:Come Ashore Jolly Tar with your Trousers On
T: Jacky Tar
T: Cuckoo's Nest
O:england
M:4/4
L:1/8
C:As played by John Adams
S:18th C London Stage Hornpipe
A:England
B:
H:18th C London Stage Hornpipe
K:G
BA | GFGE g2 fe | dBGB d2 cB | AGFE D2 d^c | d2 A2 A2 BA | GFGE g2 fe
| dBGB d2 cB | AGFE DEFA |1G2 E2 E2:|2 G2 E2 E4||: e2 ef g2 fe | d2 B2
B3 B |  ABde faef | d2 A2 A2 Bd | e2 ef g2 fe | dBGB d2 cB | AGFE DEFA
|1 G 2 E2 E4 :|2 G2E2 E2 GA |: BGEG BAGF | E6 FG| AFDF AFDF | AGFE D2EF | GF
GE g2 fe | dBGB d2 cB | AGFE DEFA |1G2 E2 E2 EG :|2 G2 E2 E2 ||


